packages/kaspersky-hexa-ui-icons/src/iconsSVGs/32/KiraColor.svg

<svg viewBox="0 0 32 32" xmlns="http://www.w3.org/2000/svg" xmlns:xlink="http://www.w3.org/1999/xlink" width="32" height="32" fill="none">
	<defs>
		<linearGradient id="paint_linear_0" x1="21.403801" x2="3.95989418" y1="-2.68742371" y2="15.0565815" gradientUnits="userSpaceOnUse">
			<stop stop-color="var(--icon--ai--violet, rgb(195,61,170))" offset="0" stop-opacity="1" />
			<stop stop-color="var(--icon--ai--marina, rgb(66,105,231))" offset="1" stop-opacity="1" />
		</linearGradient>
		<linearGradient id="paint_linear_1" x1="2.02636695" x2="13.7650347" y1="15.8660831" y2="15.8660831" gradientUnits="userSpaceOnUse">
			<stop stop-color="var(--icon--ai--green, rgb(41,204,177))" offset="0" stop-opacity="1" />
			<stop stop-color="var(--icon--ai--green_0, rgb(41,204,177))" offset="1" stop-opacity="0" />
		</linearGradient>
	</defs>
	<rect id="ai_mode" width="32" height="32" x="0.000000" y="0.000000" />
	<path id="color" d="M21.0304 2.3115C20.6413 1.92246 20.0103 1.92058 19.6192 2.3076C15.2227 6.66006 8.14384 6.66463 3.74228 2.32029C3.74052 2.31854 3.73818 2.31718 3.73642 2.31541C3.73412 2.31311 3.7319 2.30988 3.72959 2.3076C3.33852 1.9209 2.70843 1.92268 2.31943 2.3115C1.93034 2.70068 1.92833 3.33159 2.31553 3.72263C6.6733 8.12265 6.6732 15.2112 2.31553 19.6113C1.92834 20.0023 1.93044 20.6332 2.31943 21.0224C2.70843 21.4114 3.33848 21.4131 3.72959 21.0263C7.96662 16.8325 14.6938 16.678 19.1163 20.5595C18.6238 21.0373 18.1338 21.4973 17.6495 21.9375C16.2181 23.2389 14.8359 24.3678 13.5821 25.2773C13.4867 25.3465 13.3918 25.4139 13.2979 25.4804C12.9526 25.7256 12.6178 25.9532 12.295 26.1621C12.256 26.1873 12.2175 26.2136 12.1788 26.2383C11.7718 26.4984 11.3912 26.7236 11.0401 26.915C10.689 27.1063 10.3673 27.2637 10.0772 27.3867C9.88392 27.4688 9.70445 27.536 9.54014 27.5879C9.26405 27.6749 9.06668 27.7052 8.9376 27.7109C8.94335 27.5818 8.97459 27.3842 9.06162 27.1084C9.26909 26.451 9.71747 25.555 10.4112 24.4697C11.2526 23.1535 12.4107 21.6261 13.8126 20.0088C13.0208 19.8224 12.2095 19.7419 11.4005 19.7656C10.3391 21.056 9.43494 22.2846 8.72666 23.3926C7.99248 24.5411 7.43827 25.6073 7.15439 26.5068C7.01294 26.9552 6.92178 27.4152 6.9376 27.8515C6.95372 28.2949 7.08627 28.7901 7.47275 29.1767C7.85917 29.563 8.35379 29.6957 8.79697 29.7119C8.85144 29.7139 8.90687 29.7141 8.96201 29.7129C9.34864 29.7041 9.75028 29.6189 10.1427 29.4951C11.0422 29.2112 12.1084 28.658 13.2569 27.9238C13.4496 27.8006 13.6452 27.67 13.8448 27.5351C13.9048 27.4946 13.965 27.4536 14.0255 27.4121C14.4425 27.1261 14.8735 26.816 15.3155 26.4834C15.3542 26.4543 15.3929 26.4249 15.4317 26.3955C17.2448 25.0211 19.2409 23.2767 21.2335 21.2842C23.7711 18.7465 25.907 16.2037 27.3868 14.039C27.4131 14.0006 27.439 13.9621 27.4649 13.9238C27.6068 13.7143 27.7441 13.5094 27.8731 13.3076C28.0567 13.0204 28.2292 12.7384 28.3888 12.4629C28.8673 11.6364 29.2316 10.8679 29.4444 10.1933C29.5859 9.74482 29.6771 9.28407 29.6612 8.84764C29.645 8.40437 29.5125 7.90887 29.1261 7.52244C28.7395 7.13612 28.2442 7.0034 27.8009 6.98728C27.3646 6.97145 26.9045 7.06265 26.4562 7.20408C25.5567 7.48792 24.4904 8.04313 23.3419 8.77732C22.2496 9.47559 21.0401 10.3642 19.7696 11.4062C19.7471 12.214 19.8276 13.0241 20.0147 13.8144C21.6112 12.4345 23.1182 11.2935 24.419 10.4619C25.5043 9.76819 26.4004 9.31975 27.0577 9.11228C27.3339 9.02515 27.5321 8.99394 27.6612 8.98826C27.6556 9.11732 27.6243 9.31472 27.5372 9.5908C27.4854 9.75511 27.4181 9.93457 27.336 10.1279C27.213 10.418 27.0556 10.7397 26.8644 11.0908C26.6729 11.4419 26.4477 11.8225 26.1876 12.2295C26.1695 12.2577 26.1503 12.286 26.1319 12.3144C25.1295 13.8681 23.6939 15.7078 21.9425 17.6396C21.5029 18.1246 21.043 18.6149 20.5655 19.1084C16.6806 14.6874 16.8359 7.95785 21.0333 3.72263C21.4206 3.33168 21.4194 2.70077 21.0304 2.3115ZM6.56357 16.7783C7.92183 13.5145 7.92253 9.82052 6.56455 6.55662C9.82681 7.91352 13.5188 7.9135 16.7813 6.5576C15.4239 9.82017 15.4248 13.5138 16.7823 16.7763C13.5192 15.4201 9.82633 15.421 6.56357 16.7783ZM28.0372 18.3281C27.584 18.013 26.9611 18.1252 26.6456 18.5781C25.8904 19.6633 24.4728 21.2427 22.921 22.7929C21.3742 24.3382 19.756 25.7918 18.628 26.6338C18.1857 26.964 18.095 27.5907 18.4249 28.0332C18.7553 28.4758 19.3827 28.5667 19.8253 28.2363C21.0628 27.3125 22.7567 25.7837 24.3341 24.208C25.9066 22.637 27.4273 20.9564 28.2872 19.7207C28.6025 19.2674 28.4904 18.6435 28.0372 18.3281ZM27.129 24.3115C27.4446 23.8588 28.0675 23.7464 28.5206 24.0615C28.9736 24.3769 29.0856 25.0009 28.7706 25.4541C28.4695 25.8867 27.9652 26.4396 27.4737 26.9306C26.9774 27.4264 26.4289 27.9234 26.0099 28.2363C25.5673 28.5667 24.9398 28.4757 24.6095 28.0332C24.2795 27.5907 24.3703 26.9641 24.8126 26.6338C25.1221 26.4027 25.595 25.9808 26.0606 25.5156C26.5313 25.0454 26.9327 24.5936 27.129 24.3115Z" fill="url(#paint_linear_0)" fill-rule="evenodd" />
	<path id="color" d="M21.0304 2.3115C20.6413 1.92246 20.0103 1.92058 19.6192 2.3076C15.2227 6.66006 8.14384 6.66463 3.74228 2.32029C3.74052 2.31854 3.73818 2.31718 3.73642 2.31541C3.73412 2.31311 3.7319 2.30988 3.72959 2.3076C3.33852 1.9209 2.70843 1.92268 2.31943 2.3115C1.93034 2.70068 1.92833 3.33159 2.31553 3.72263C6.6733 8.12265 6.6732 15.2112 2.31553 19.6113C1.92834 20.0023 1.93044 20.6332 2.31943 21.0224C2.70843 21.4114 3.33848 21.4131 3.72959 21.0263C7.96662 16.8325 14.6938 16.678 19.1163 20.5595C18.6238 21.0373 18.1338 21.4973 17.6495 21.9375C16.2181 23.2389 14.8359 24.3678 13.5821 25.2773C13.4867 25.3465 13.3918 25.4139 13.2979 25.4804C12.9526 25.7256 12.6178 25.9532 12.295 26.1621C12.256 26.1873 12.2175 26.2136 12.1788 26.2383C11.7718 26.4984 11.3912 26.7236 11.0401 26.915C10.689 27.1063 10.3673 27.2637 10.0772 27.3867C9.88392 27.4688 9.70445 27.536 9.54014 27.5879C9.26405 27.6749 9.06668 27.7052 8.9376 27.7109C8.94335 27.5818 8.97459 27.3842 9.06162 27.1084C9.26909 26.451 9.71747 25.555 10.4112 24.4697C11.2526 23.1535 12.4107 21.6261 13.8126 20.0088C13.0208 19.8224 12.2095 19.7419 11.4005 19.7656C10.3391 21.056 9.43494 22.2846 8.72666 23.3926C7.99248 24.5411 7.43827 25.6073 7.15439 26.5068C7.01294 26.9552 6.92178 27.4152 6.9376 27.8515C6.95372 28.2949 7.08627 28.7901 7.47275 29.1767C7.85917 29.563 8.35379 29.6957 8.79697 29.7119C8.85144 29.7139 8.90687 29.7141 8.96201 29.7129C9.34864 29.7041 9.75028 29.6189 10.1427 29.4951C11.0422 29.2112 12.1084 28.658 13.2569 27.9238C13.4496 27.8006 13.6452 27.67 13.8448 27.5351C13.9048 27.4946 13.965 27.4536 14.0255 27.4121C14.4425 27.1261 14.8735 26.816 15.3155 26.4834C15.3542 26.4543 15.3929 26.4249 15.4317 26.3955C17.2448 25.0211 19.2409 23.2767 21.2335 21.2842C23.7711 18.7465 25.907 16.2037 27.3868 14.039C27.4131 14.0006 27.439 13.9621 27.4649 13.9238C27.6068 13.7143 27.7441 13.5094 27.8731 13.3076C28.0567 13.0204 28.2292 12.7384 28.3888 12.4629C28.8673 11.6364 29.2316 10.8679 29.4444 10.1933C29.5859 9.74482 29.6771 9.28407 29.6612 8.84764C29.645 8.40437 29.5125 7.90887 29.1261 7.52244C28.7395 7.13612 28.2442 7.0034 27.8009 6.98728C27.3646 6.97145 26.9045 7.06265 26.4562 7.20408C25.5567 7.48792 24.4904 8.04313 23.3419 8.77732C22.2496 9.47559 21.0401 10.3642 19.7696 11.4062C19.7471 12.214 19.8276 13.0241 20.0147 13.8144C21.6112 12.4345 23.1182 11.2935 24.419 10.4619C25.5043 9.76819 26.4004 9.31975 27.0577 9.11228C27.3339 9.02515 27.5321 8.99394 27.6612 8.98826C27.6556 9.11732 27.6243 9.31472 27.5372 9.5908C27.4854 9.75511 27.4181 9.93457 27.336 10.1279C27.213 10.418 27.0556 10.7397 26.8644 11.0908C26.6729 11.4419 26.4477 11.8225 26.1876 12.2295C26.1695 12.2577 26.1503 12.286 26.1319 12.3144C25.1295 13.8681 23.6939 15.7078 21.9425 17.6396C21.5029 18.1246 21.043 18.6149 20.5655 19.1084C16.6806 14.6874 16.8359 7.95785 21.0333 3.72263C21.4206 3.33168 21.4194 2.70077 21.0304 2.3115ZM6.56357 16.7783C7.92183 13.5145 7.92253 9.82052 6.56455 6.55662C9.82681 7.91352 13.5188 7.9135 16.7813 6.5576C15.4239 9.82017 15.4248 13.5138 16.7823 16.7763C13.5192 15.4201 9.82633 15.421 6.56357 16.7783ZM28.0372 18.3281C27.584 18.013 26.9611 18.1252 26.6456 18.5781C25.8904 19.6633 24.4728 21.2427 22.921 22.7929C21.3742 24.3382 19.756 25.7918 18.628 26.6338C18.1857 26.964 18.095 27.5907 18.4249 28.0332C18.7553 28.4758 19.3827 28.5667 19.8253 28.2363C21.0628 27.3125 22.7567 25.7837 24.3341 24.208C25.9066 22.637 27.4273 20.9564 28.2872 19.7207C28.6025 19.2674 28.4904 18.6435 28.0372 18.3281ZM27.129 24.3115C27.4446 23.8588 28.0675 23.7464 28.5206 24.0615C28.9736 24.3769 29.0856 25.0009 28.7706 25.4541C28.4695 25.8867 27.9652 26.4396 27.4737 26.9306C26.9774 27.4264 26.4289 27.9234 26.0099 28.2363C25.5673 28.5667 24.9398 28.4757 24.6095 28.0332C24.2795 27.5907 24.3703 26.9641 24.8126 26.6338C25.1221 26.4027 25.595 25.9808 26.0606 25.5156C26.5313 25.0454 26.9327 24.5936 27.129 24.3115Z" fill="url(#paint_linear_1)" fill-rule="evenodd" />
</svg>

<svg xmlns="http://www.w3.org/2000/svg" width="32" height="32" fill="none" viewBox="0 0 32 32"><defs><linearGradient id="a" x1="21" x2="4" y1="-3" y2="15" gradientUnits="userSpaceOnUse"><stop offset="0" stop-color="var(--icon--ai--violet, rgb(195,61,170))"/><stop offset="1" stop-color="var(--icon--ai--marina, rgb(66,105,231))"/></linearGradient><linearGradient id="b" x1="2" x2="14" y1="16" y2="16" gradientUnits="userSpaceOnUse"><stop offset="0" stop-color="var(--icon--ai--green, rgb(41,204,177))"/><stop offset="1" stop-color="var(--icon--ai--green_0, rgb(41,204,177))" stop-opacity="0"/></linearGradient></defs><path fill="url(#a)" fill-rule="evenodd" d="M21.0304 2.3115c-.3891-.389-1.0201-.391-1.4112-.0039-4.3965 4.3525-11.4754 4.357-15.877.0127-.0017-.0018-.004-.0031-.0058-.0049-.0023-.0023-.0045-.0055-.0068-.0078-.391-.3867-1.0212-.385-1.4102.0039-.389.3892-.391 1.02-.0039 1.4111 4.3578 4.4 4.3577 11.4886 0 15.8887-.3872.391-.385 1.0219.004 1.4111.389.389 1.019.3907 1.41.0039 4.2371-4.1938 10.9643-4.3483 15.3868-.4668a62 62 0 0 1-1.4668 1.378c-1.4314 1.3014-2.8136 2.4303-4.0674 3.3398a31 31 0 0 1-.2842.2031 28 28 0 0 1-1.0029.6817c-.039.0252-.0775.0515-.1162.0762-.407.2601-.7876.4853-1.1387.6767s-.6728.3487-.9629.4717a6 6 0 0 1-.537.2012c-.2762.087-.4735.1173-.6026.123.0058-.1291.037-.3267.124-.6025.2075-.6574.6559-1.5534 1.3496-2.6387.8414-1.3162 1.9995-2.8436 3.4014-4.4609a9.34 9.34 0 0 0-2.4121-.2432c-1.0614 1.2904-1.9656 2.519-2.6738 3.627-.7342 1.1485-1.2884 2.2147-1.5723 3.1142-.1415.4484-.2326.9084-.2168 1.3447.0161.4434.1487.9386.5351 1.3252.3865.3863.881.519 1.3243.5352a3 3 0 0 0 .165.001c.3866-.0088.7883-.094 1.1807-.2178.8995-.2839 1.9657-.8371 3.1142-1.5713.1927-.1232.3883-.2538.5879-.3887q.09-.0607.1807-.123c.417-.286.848-.5961 1.29-.9287q.058-.0437.1162-.0879c1.8131-1.3744 3.8092-3.1188 5.8018-5.1113 2.5376-2.5377 4.6735-5.0805 6.1533-7.2452q.0393-.0577.0781-.1152c.1419-.2095.2792-.4144.4082-.6162.1836-.2872.3561-.5692.5157-.8447.4785-.8265.8428-1.595 1.0556-2.2696.1415-.4485.2327-.9092.2168-1.3457-.0162-.4432-.1487-.9387-.5351-1.3252-.3866-.3863-.8819-.519-1.3252-.5351-.4363-.0159-.8964.0753-1.3447.2168-.8995.2838-1.9658.839-3.1143 1.5732-1.0923.6983-2.3018 1.5869-3.5723 2.6289a9.33 9.33 0 0 0 .2451 2.4082c1.5965-1.3799 3.1035-2.5209 4.4043-3.3525 1.0853-.6937 1.9814-1.1421 2.6387-1.3496.2762-.0871.4744-.1184.6035-.124-.0056.129-.0369.3264-.124.6025-.0518.1643-.1191.3438-.2012.5371-.123.2901-.2804.6118-.4716.9629-.1915.3511-.4167.7317-.6768 1.1387-.0181.0282-.0373.0565-.0557.0849-1.0024 1.5537-2.438 3.3934-4.1894 5.3252-.4396.485-.8995.9753-1.377 1.4688-3.8849-4.421-3.7296-11.1505.4678-15.3858.3873-.391.3861-1.0218-.0029-1.4111M6.5636 16.7783c1.3582-3.2638 1.359-6.9578.001-10.2217 3.2622 1.357 6.9542 1.3569 10.2167.001-1.3574 3.2626-1.3565 6.9562.001 10.2187-3.2631-1.3562-6.956-1.3553-10.2187.002m21.4736 1.5498c-.4532-.3151-1.0761-.2029-1.3916.25-.7552 1.0852-2.1728 2.6646-3.7246 4.2148-1.5468 1.5453-3.165 2.9989-4.293 3.8409-.4423.3302-.533.9569-.2031 1.3994.3304.4426.9578.5335 1.4004.2031 1.2375-.9238 2.9314-2.4526 4.5088-4.0283 1.5725-1.571 3.0932-3.2516 3.9531-4.4873.3153-.4533.2032-1.0772-.25-1.3926m-.9082 5.9834c.3156-.4527.9385-.5651 1.3916-.25.453.3154.565.9394.25 1.3926-.3011.4326-.8054.9855-1.2969 1.4765-.4963.4958-1.0448.9928-1.4638 1.3057-.4426.3304-1.0701.2394-1.4004-.2031-.33-.4425-.2392-1.0691.2031-1.3994.3095-.2311.7824-.653 1.248-1.1182.4707-.4702.8721-.922 1.0684-1.2041"/><path fill="url(#b)" fill-rule="evenodd" d="M21.0304 2.3115c-.3891-.389-1.0201-.391-1.4112-.0039-4.3965 4.3525-11.4754 4.357-15.877.0127-.0017-.0018-.004-.0031-.0058-.0049-.0023-.0023-.0045-.0055-.0068-.0078-.391-.3867-1.0212-.385-1.4102.0039-.389.3892-.391 1.02-.0039 1.4111 4.3578 4.4 4.3577 11.4886 0 15.8887-.3872.391-.385 1.0219.004 1.4111.389.389 1.019.3907 1.41.0039 4.2371-4.1938 10.9643-4.3483 15.3868-.4668a62 62 0 0 1-1.4668 1.378c-1.4314 1.3014-2.8136 2.4303-4.0674 3.3398a31 31 0 0 1-.2842.2031 28 28 0 0 1-1.0029.6817c-.039.0252-.0775.0515-.1162.0762-.407.2601-.7876.4853-1.1387.6767s-.6728.3487-.9629.4717a6 6 0 0 1-.537.2012c-.2762.087-.4735.1173-.6026.123.0058-.1291.037-.3267.124-.6025.2075-.6574.6559-1.5534 1.3496-2.6387.8414-1.3162 1.9995-2.8436 3.4014-4.4609a9.34 9.34 0 0 0-2.4121-.2432c-1.0614 1.2904-1.9656 2.519-2.6738 3.627-.7342 1.1485-1.2884 2.2147-1.5723 3.1142-.1415.4484-.2326.9084-.2168 1.3447.0161.4434.1487.9386.5351 1.3252.3865.3863.881.519 1.3243.5352a3 3 0 0 0 .165.001c.3866-.0088.7883-.094 1.1807-.2178.8995-.2839 1.9657-.8371 3.1142-1.5713.1927-.1232.3883-.2538.5879-.3887q.09-.0607.1807-.123c.417-.286.848-.5961 1.29-.9287q.058-.0437.1162-.0879c1.8131-1.3744 3.8092-3.1188 5.8018-5.1113 2.5376-2.5377 4.6735-5.0805 6.1533-7.2452q.0393-.0577.0781-.1152c.1419-.2095.2792-.4144.4082-.6162.1836-.2872.3561-.5692.5157-.8447.4785-.8265.8428-1.595 1.0556-2.2696.1415-.4485.2327-.9092.2168-1.3457-.0162-.4432-.1487-.9387-.5351-1.3252-.3866-.3863-.8819-.519-1.3252-.5351-.4363-.0159-.8964.0753-1.3447.2168-.8995.2838-1.9658.839-3.1143 1.5732-1.0923.6983-2.3018 1.5869-3.5723 2.6289a9.33 9.33 0 0 0 .2451 2.4082c1.5965-1.3799 3.1035-2.5209 4.4043-3.3525 1.0853-.6937 1.9814-1.1421 2.6387-1.3496.2762-.0871.4744-.1184.6035-.124-.0056.129-.0369.3264-.124.6025-.0518.1643-.1191.3438-.2012.5371-.123.2901-.2804.6118-.4716.9629-.1915.3511-.4167.7317-.6768 1.1387-.0181.0282-.0373.0565-.0557.0849-1.0024 1.5537-2.438 3.3934-4.1894 5.3252-.4396.485-.8995.9753-1.377 1.4688-3.8849-4.421-3.7296-11.1505.4678-15.3858.3873-.391.3861-1.0218-.0029-1.4111M6.5636 16.7783c1.3582-3.2638 1.359-6.9578.001-10.2217 3.2622 1.357 6.9542 1.3569 10.2167.001-1.3574 3.2626-1.3565 6.9562.001 10.2187-3.2631-1.3562-6.956-1.3553-10.2187.002m21.4736 1.5498c-.4532-.3151-1.0761-.2029-1.3916.25-.7552 1.0852-2.1728 2.6646-3.7246 4.2148-1.5468 1.5453-3.165 2.9989-4.293 3.8409-.4423.3302-.533.9569-.2031 1.3994.3304.4426.9578.5335 1.4004.2031 1.2375-.9238 2.9314-2.4526 4.5088-4.0283 1.5725-1.571 3.0932-3.2516 3.9531-4.4873.3153-.4533.2032-1.0772-.25-1.3926m-.9082 5.9834c.3156-.4527.9385-.5651 1.3916-.25.453.3154.565.9394.25 1.3926-.3011.4326-.8054.9855-1.2969 1.4765-.4963.4958-1.0448.9928-1.4638 1.3057-.4426.3304-1.0701.2394-1.4004-.2031-.33-.4425-.2392-1.0691.2031-1.3994.3095-.2311.7824-.653 1.248-1.1182.4707-.4702.8721-.922 1.0684-1.2041"/></svg>
